X:55
T:Sonata K.9 in D minor (Allegrissimo)
C:Scarlatti, D.
M:3/8
L:1/16
Q:3/8=144
K:Dmin
|:A4|d4 efed|c4 Bcde|f4 gfed|e4 A4|
d4 cBAG|F4 GABC|d4 e2f2|d8:|

